src/assets/icons/default/IconEdit.svg

<svg width="20" height="20" viewBox="0 0 24 26" fill="none" xmlns="http://www.w3.org/2000/svg">
<path d="M18.8718 6.88338L14.4375 4.32324L6.42523 18.2009L10.8595 20.761L18.8718 6.88338Z" stroke="currentColor" stroke-width="2" stroke-miterlimit="10"/>
<path d="M19.0619 6.55491L14.6276 3.99477L15.5284 2.43456C16.0499 1.53128 17.2156 1.21893 18.1189 1.74043L19.2685 2.40417C20.1718 2.92568 20.4842 4.09142 19.9626 4.9947L19.0619 6.55491Z" stroke="currentColor" stroke-width="2" stroke-miterlimit="10"/>
<path d="M8.07261 20.4663L10.2898 21.7464L8.0844 23.1009L5.84434 24.3258L5.86726 21.8208L5.85547 19.1863L8.07261 20.4663Z" stroke="currentColor" stroke-width="2" stroke-miterlimit="10" stroke-linejoin="round"/>
</svg>

<svg xmlns="http://www.w3.org/2000/svg" width="20" height="20" fill="none" viewBox="0 0 24 26">
  <path stroke="currentcolor" stroke-miterlimit="10" stroke-width="2" d="m18.87 6.88-4.43-2.56L6.43 18.2l4.43 2.56zm.19-.33L14.63 4l.9-1.56a1.9 1.9 0 0 1 2.59-.69l1.15.66a1.9 1.9 0 0 1 .7 2.6z"/>
  <path stroke="currentcolor" stroke-linejoin="round" stroke-miterlimit="10" stroke-width="2" d="m8.07 20.47 2.22 1.28-2.2 1.35-2.25 1.23.03-2.5-.01-2.64z"/>
</svg>
